assets/icons/person.svg

<svg height="90.615" viewBox="0 0 113.269 90.615" width="113.269" xmlns="http://www.w3.org/2000/svg"><path d="m110.437 36.812h-11.327v-11.327a2.84 2.84 0 0 0 -2.832-2.832h-5.663a2.84 2.84 0 0 0 -2.832 2.832v11.327h-11.327a2.84 2.84 0 0 0 -2.832 2.832v5.663a2.84 2.84 0 0 0 2.832 2.832h11.327v11.327a2.84 2.84 0 0 0 2.832 2.834h5.663a2.84 2.84 0 0 0 2.832-2.832v-11.329h11.327a2.84 2.84 0 0 0 2.832-2.832v-5.663a2.84 2.84 0 0 0 -2.832-2.832zm-70.793 8.5a22.654 22.654 0 1 0 -22.654-22.658 22.652 22.652 0 0 0 22.654 22.653zm15.856 5.659h-2.954a30.808 30.808 0 0 1 -25.8 0h-2.96a23.793 23.793 0 0 0 -23.786 23.786v7.363a8.5 8.5 0 0 0 8.5 8.5h62.3a8.5 8.5 0 0 0 8.5-8.5v-7.363a23.793 23.793 0 0 0 -23.8-23.786z" fill="#7367ed"/></svg>

<svg xmlns="http://www.w3.org/2000/svg" width="113.269" height="90.615" viewBox="0 0 113.269 90.615">
  <path id="Icon_awesome-user-plus" data-name="Icon awesome-user-plus" d="M110.437,36.812H99.11V25.485a2.84,2.84,0,0,0-2.832-2.832H90.615a2.84,2.84,0,0,0-2.832,2.832V36.812H76.456a2.84,2.84,0,0,0-2.832,2.832v5.663a2.84,2.84,0,0,0,2.832,2.832H87.783V59.466A2.84,2.84,0,0,0,90.615,62.3h5.663a2.84,2.84,0,0,0,2.832-2.832V48.139h11.327a2.84,2.84,0,0,0,2.832-2.832V39.644A2.84,2.84,0,0,0,110.437,36.812Zm-70.793,8.5A22.654,22.654,0,1,0,16.99,22.654,22.652,22.652,0,0,0,39.644,45.307ZM55.5,50.971H52.546a30.808,30.808,0,0,1-25.8,0H23.786A23.793,23.793,0,0,0,0,74.757V82.12a8.5,8.5,0,0,0,8.5,8.5h62.3a8.5,8.5,0,0,0,8.5-8.5V74.757A23.793,23.793,0,0,0,55.5,50.971Z" fill="#7367ed"/>
</svg>
